X:240
T:Waltz
O:No 240 William Clarke of Feltwell
M:3/8
L:1/8
N:First note changed to a quaver, Quaver rest added to beginning of C music.
K:C
G|c2c'/a/|(ge).c|(gf).d|(ge).c|c2(c'/a/)|(ge).c|(gf).d|c2::D|DGd|fdB|ceG|EGc|GGd|(fd).B|ced|c2::z|{f}ede|(ef).d|{e}dc.d|^dec|{f}ede|efd|{e}dcd|c2::G|(c/e/).G/.G/.G/.G/|(c/e/).G/.G/.G/.G/|(d/f/).G/.G/.G/.G/|(d/f/)(G/d/)(f/d/)|(c/e/).G/.G/.G/.G/|(c/e/).G/.G/.G/.G/|(d/f/)(G/d/)(f/d/)|c2:|

